assets/img/braze_icons/coins-hand.svg

<svg fill="none" height="24" viewBox="0 0 24 24" width="24" xmlns="http://www.w3.org/2000/svg"><g fill="#801ed7"><path d="m16.5 2c-2.4853 0-4.5 2.01472-4.5 4.5s2.0147 4.5 4.5 4.5 4.5-2.01472 4.5-4.5-2.0147-4.5-4.5-4.5z"/><path d="m12.0318 1.77926c-1.2513 1.18473-2.0318 2.86158-2.0318 4.72074 0 1.19709.3236 2.31861.8881 3.28183-.4372.14163-.90371.21817-1.3881.21817-2.48528 0-4.5-2.01472-4.5-4.5s2.01472-4.5 4.5-4.5c.9388 0 1.8105.2875 2.5318.77926z"/><path d="m17.7089 15.8933c0 .7913-.5234 1.4605-1.2449 1.6842l.4639-.0215c.507 0 1-.1594 1.4051-.4556l2.8289-2.0638c.706-.5149 1.6942-.4465 2.3183.1606.6932.6743.6932 1.7666 0 2.4397l-2.4272 2.3612c-.6534.6355-1.4871 1.0695-2.3933 1.246l-3.4307.6675c-.6803.1321-1.3817.1162-2.0549-.0479l-3.1029-.754c-.37118-.0911-.75172-.1367-1.1346-.1367-.4065 0-.60975 0-.77282-.0582-.28245-.1008-.50472-.3231-.60556-.6055-.05822-.1631-.05822-.3664-.05822-.7728v-3.4292c0-.2858 0-.4287.0367-.5604.03251-.1167.08595-.2265.15771-.3241.081-.1101.19347-.1983.4184-.3746l1.18559-.9296s1.9648-.9186 3.0502-.9186c.4496 0 .8969.0547 1.3336.163l2.6837.6671c.7892.1957 1.343.9012 1.343 1.7104z"/><path clip-rule="evenodd" d="m3.47354 13h.02646.02648c.21004 0 .41467-.0001.58875.0118.19037.013.4161.0435.65014.1404.49006.203.8794.5924 1.08239 1.0824.09695.2341.12742.4598.14041.6502.01188.174.01186.3787.01184.5887-.00001.0088-.00001.0177-.00001.0265l.00001 5.0265c.00002.21.00004.4146-.01184.5887-.01299.1904-.04346.4161-.14041.6502-.20299.49-.59233.8794-1.08239 1.0823-.23404.097-.45977.1275-.65014.1405-.17408.0118-.3787.0118-.58875.0118h-.05296c-.21004 0-.41466 0-.58874-.0118-.19038-.013-.4161-.0435-.65014-.1405-.49006-.2029-.87941-.5923-1.0824-1.0823-.09694-.2341-.12741-.4598-.1404-.6502-.01188-.1741-.011859-.3787-.01184-.5887v-5.0265c0-.0088 0-.0177 0-.0265-.000019-.21-.00004-.4147.01184-.5887.01299-.1904.04346-.4161.1404-.6502.20299-.49.59234-.8794 1.0824-1.0824.23404-.0969.45977-.1274.65014-.1404.17408-.0119.37871-.0118.58876-.0118z" fill-rule="evenodd"/></g></svg>

<svg width="24" height="24" viewBox="0 0 24 24" fill="none" xmlns="http://www.w3.org/2000/svg">
<path d="M16.5 2C14.0147 2 12 4.01472 12 6.5C12 8.98528 14.0147 11 16.5 11C18.9853 11 21 8.98528 21 6.5C21 4.01472 18.9853 2 16.5 2Z" fill="#801ED7"/>
<path d="M12.0318 1.77926C10.7805 2.96399 10 4.64084 10 6.5C10 7.69709 10.3236 8.81861 10.8881 9.78183C10.4509 9.92346 9.98439 10 9.5 10C7.01472 10 5 7.98528 5 5.5C5 3.01472 7.01472 1 9.5 1C10.4388 1 11.3105 1.2875 12.0318 1.77926Z" fill="#801ED7"/>
<path d="M17.7089 15.8933C17.7089 16.6846 17.1855 17.3538 16.464 17.5775L16.9279 17.556C17.4349 17.556 17.9279 17.3966 18.333 17.1004L21.1619 15.0366C21.8679 14.5217 22.8561 14.5901 23.4802 15.1972C24.1734 15.8715 24.1734 16.9638 23.4802 17.6369L21.053 19.9981C20.3996 20.6336 19.5659 21.0676 18.6597 21.2441L15.229 21.9116C14.5487 22.0437 13.8473 22.0278 13.1741 21.8637L10.0712 21.1097C9.70002 21.0186 9.31948 20.973 8.9366 20.973C8.5301 20.973 8.32685 20.973 8.16378 20.9148C7.88133 20.814 7.65906 20.5917 7.55822 20.3093C7.5 20.1462 7.5 19.9429 7.5 19.5365V16.1073C7.5 15.8215 7.5 15.6786 7.5367 15.5469C7.56921 15.4302 7.62265 15.3204 7.69441 15.2228C7.77541 15.1127 7.88788 15.0245 8.11281 14.8482L9.2984 13.9186C9.2984 13.9186 11.2632 13 12.3486 13C12.7982 13 13.2455 13.0547 13.6822 13.163L16.3659 13.8301C17.1551 14.0258 17.7089 14.7313 17.7089 15.5405V15.8933Z" fill="#801ED7"/>
<path fill-rule="evenodd" clip-rule="evenodd" d="M3.47354 13C3.48235 13 3.49117 13 3.5 13C3.50884 13 3.51766 13 3.52648 13C3.73652 13 3.94115 12.9999 4.11523 13.0118C4.3056 13.0248 4.53133 13.0553 4.76537 13.1522C5.25543 13.3552 5.64477 13.7446 5.84776 14.2346C5.94471 14.4687 5.97518 14.6944 5.98817 14.8848C6.00005 15.0588 6.00003 15.2635 6.00001 15.4735C6 15.4823 6 15.4912 6 15.5L6.00001 20.5265C6.00003 20.7365 6.00005 20.9411 5.98817 21.1152C5.97518 21.3056 5.94471 21.5313 5.84776 21.7654C5.64477 22.2554 5.25543 22.6448 4.76537 22.8477C4.53133 22.9447 4.3056 22.9752 4.11523 22.9882C3.94115 23 3.73653 23 3.52648 23H3.47352C3.26348 23 3.05886 23 2.88478 22.9882C2.6944 22.9752 2.46868 22.9447 2.23464 22.8477C1.74458 22.6448 1.35523 22.2554 1.15224 21.7654C1.0553 21.5313 1.02483 21.3056 1.01184 21.1152C0.99996 20.9411 0.999981 20.7365 1 20.5265L1 15.5C1 15.4912 1 15.4823 1 15.4735C0.999981 15.2635 0.99996 15.0588 1.01184 14.8848C1.02483 14.6944 1.0553 14.4687 1.15224 14.2346C1.35523 13.7446 1.74458 13.3552 2.23464 13.1522C2.46868 13.0553 2.69441 13.0248 2.88478 13.0118C3.05886 12.9999 3.26349 13 3.47354 13Z" fill="#801ED7"/>
</svg>
